X: 1212
T: Karadeniz Oyunhavası
C: (Anonim)
O: Turkey
F: http://compmusic.upf.edu/node/140
N: karcigar--mandra--devrituran--karadeniz_oyunhavasi--
N: makam= karcigar
N: form= mandra
N: usul= devrituran = 7/16
M: 7/16
L: 1/16
K: C _2/4B _3/4e ^3/4f 
Q: 1/4=276
%%MIDI tuningsystem comma53
c4 d4 d4 d2  | d4 d4 e2 d2 c2  | d4 d4 e2 d2 c2  | \
w:   |   |   | 
e2 d2 c2 B2 c4 z2  | c4 d4 d4 d2  | 
w:   |   | 
d4 d4 e2 d2 c2  | d4 d4 e2 d2 c2  | e2 d2 c2 B2 c4 z2  | \
w:   |   |   | 
d4 d4 e2 d2 c2  | 
w:   | 
d2 d2 c2 d2 c4 B2  | c2 B2 c2 d2 c2 B2 A2  | \
w:   |   | 
d4 d4 d4 z2  | d4 d4 e2 d2 c2  | 
w:   |   | 
e2 d2 c2 d2 c4 B2  | c2 B2 c2 d2 B2 A2 G2  | \
w:   |   | 
A4 A4 A4 z2  | d4 d4 e2 d2 c2  | 
w:   |   | 
d2 d2 c2 d2 c4 B2  | c2 B2 c2 d2 c2 B2 A2  | \
w:   |   | 
d4 d4 d4 z2  | d4 d4 e2 d2 c2  | 
w:   |   | 
e2 d2 c2 d2 c4 B2  | c2 B2 c2 d2 B2 A2 G2  | \
w:   |   | 
A4 A4 A4 z2  | c4 d4 d4 d2  | 
w:   |   | 
d4 d4 e2 d2 c2  | d4 d4 e2 d2 c2  | e2 d2 c2 B2 c4 z2  | \
w:   |   |   | 
c4 d4 d4 d2  | d4 d4 e2 d2 c2  | 
w:   |   | 
d4 d4 e2 d2 c2  | e2 d2 c2 B2 c4 z2  | \
w:   |   | 
d4 d4 e2 d2 c2  | d2 d2 c2 d2 c4 B2  | 
w:   |   | 
c2 B2 c2 d2 c2 B2 A2  | d4 d4 d4 z2  | \
w:   |   | 
d4 d4 e2 d2 c2  | e2 d2 c2 d2 c4 B2  | 
w:   |   | 
c2 B2 c2 d2 B2 A2 G2  | A4 A4 A4 z2  | \
w:   |   | 
d4 d4 e2 d2 c2  | d2 d2 c2 d2 c4 B2  | 
w:   |   | 
c2 B2 c2 d2 c2 B2 A2  | d4 d4 d4 z2  | \
w:   |   | 
d4 d4 e2 d2 c2  | e2 d2 c2 d2 c4 B2  | 
w:   |   | 
c2 B2 c2 d2 B2 A2 G2  | A4 A4 A4 z2  | |


